X:1
T:Title
%%score { 1 | 2 }
L:1/8
M:4/4
K:G
V:1 treble nm="Grand Piano"
V:2 treble 
V:1
 z4 z2[Q:1/4=100] G2 | B3 G [FA][EG][EG][CE] | [B,D]6 [DG]2 | [FA]3 [GB] [Ac]2 [Fd]2 |[M:3/4] B6 | %5
[M:1/4] G2 |[M:4/4] B3 G [EA][EG][EG][G,CE] | [G,B,D]6 [B,DG]2 | [CFA]3 [B,G] [DGB]2 [CFA]2 | %9
[M:3/4] G6 |[M:1/4] B2 |[M:4/4] d3 B cBAG | E6 [EG]2 | [Ec]3 [Ge] [Gd]2 [GB]2 |[M:3/4] [FA]6 | %15
[M:1/4] G2 |[M:4/4] B3 G [EA][EG][EG][G,CE] | [G,B,D]6 [B,DG]2 | [CFA]3 [B,G] [DGB]2 [CFA]2 | %19
[M:3/4] [B,G]6 |] %20
V:2
 z4 z2 [G,B,]2 | [G,DG]3[K:bass] [G,B,D] [C,C][C,C][C,C][C,G,] | [G,,G,]6 [G,B,]2 | %3
 [D,D]3 [D,D] [D,D]2 [D,D]2 |[M:3/4][K:treble] [G,DG]6 |[M:1/4] [G,B,]2 | %6
[M:4/4] [G,DG]3[K:bass] [G,B,D] [C,C][C,C][C,C]C, | G,,6 G,2 | D,3 D, D,2 D,2 |[M:3/4] [G,B,]6 | %10
[M:1/4][K:treble] [G,DG]2 |[M:4/4] [G,B,G]3 [G,DG] [G,EG][G,DG][K:bass][G,CD][G,B,D] | %12
 [C,G,C]6 [C,C]2 | [C,G,]3 [C,C] [G,B,]2 [G,D]2 |[M:3/4] [D,D]6 |[M:1/4] [G,B,]2 | %16
[M:4/4][K:treble] [G,DG]3 [G,B,D][K:bass] [C,C][C,C][C,C]C, | G,,6 G,2 | D,3 D, D,2 D,2 | %19
[M:3/4] G,6 |] %20

